img/sm/wechatvideo.svg

<svg width="414" height="361" viewBox="0 0 414 361" fill="none" xmlns="http://www.w3.org/2000/svg">
<path fill-rule="evenodd" clip-rule="evenodd" d="M206.568 174.527C186.954 137.481 157.624 92.3752 128.251 57.7389C109.972 36.1857 90.5364 17.3018 72.4657 7.49767C63.42 2.59001 53.1339 -0.92004 42.674 0.214021C31.3253 1.44444 22.227 7.85412 16.013 17.8219C1.58628 40.9639 -1.48792 72.0045 0.581228 103.461C2.67956 135.361 10.2489 170.096 19.4933 202.515C37.9952 267.399 63.8432 325.172 69.1742 336.615C73.4382 345.767 79.5878 353.697 88.5944 357.695C97.9515 361.848 107.397 360.457 115.264 357.063C129.837 350.777 143.856 335.6 155.943 319.706C174.455 295.362 192.769 263.309 206.568 237.634C220.367 263.309 238.68 295.362 257.193 319.706C269.28 335.6 283.299 350.777 297.872 357.063C305.739 360.457 315.184 361.848 324.541 357.695C333.548 353.697 339.698 345.767 343.962 336.615C349.293 325.172 375.141 267.399 393.643 202.515C402.887 170.096 410.456 135.361 412.555 103.461C414.624 72.0045 411.55 40.9639 397.123 17.8219C390.909 7.85412 381.811 1.44444 370.462 0.214021C360.002 -0.92004 349.716 2.59001 340.67 7.49767C322.599 17.3018 303.164 36.1857 284.885 57.7389C255.512 92.3752 226.182 137.481 206.568 174.527ZM40.6226 33.1636C42.8245 29.6315 44.5382 29.1818 45.7998 29.0451C47.9502 28.8119 52.0727 29.4268 58.6363 32.9878C71.7842 40.1211 88.3694 55.5493 106.133 76.4957C139.384 115.704 172.772 169.404 190.193 206.568C176.093 233.577 154.345 273.898 132.859 302.152C120.848 317.946 110.756 327.424 103.777 330.435C102.292 331.076 101.363 331.227 100.909 331.252C100.547 331.272 100.432 331.221 100.364 331.191L100.359 331.188C100.191 331.114 98.1275 330.091 95.4612 324.368C90.4456 313.602 65.2932 257.376 47.3816 194.562C38.4193 163.132 31.4286 130.593 29.5187 101.558C27.5796 72.0784 31.049 48.5207 40.6226 33.1636ZM372.513 33.1636C370.311 29.6315 368.598 29.1818 367.336 29.0451C365.186 28.8119 361.063 29.4268 354.5 32.9878C341.352 40.1211 324.766 55.5493 307.003 76.4957C273.752 115.704 240.364 169.404 222.943 206.568C237.042 233.577 258.791 273.898 280.277 302.152C292.288 317.946 302.38 327.424 309.359 330.435C310.844 331.076 311.773 331.227 312.227 331.252C312.589 331.272 312.704 331.221 312.771 331.191L312.777 331.188C312.945 331.114 315.008 330.091 317.675 324.368C322.69 313.602 347.843 257.376 365.754 194.562C374.717 163.132 381.707 130.593 383.617 101.558C385.556 72.0784 382.087 48.5207 372.513 33.1636Z" fill="#DCDCDC"/>
</svg>

<svg width="414" height="361" fill="none" xmlns="http://www.w3.org/2000/svg"><path fill-rule="evenodd" clip-rule="evenodd" d="M206.568 174.527c-19.614-37.046-48.944-82.152-78.317-116.788-18.279-21.553-37.715-40.437-55.785-50.241C63.42 2.59 53.134-.92 42.674.214c-11.349 1.23-20.447 7.64-26.661 17.608C1.586 40.964-1.487 72.004.581 103.46c2.099 31.9 9.668 66.635 18.912 99.054 18.502 64.884 44.35 122.657 49.681 134.1 4.264 9.152 10.414 17.082 19.42 21.08 9.358 4.153 18.803 2.762 26.67-.632 14.573-6.286 28.592-21.463 40.679-37.357 18.512-24.344 36.826-56.397 50.625-82.072 13.799 25.675 32.112 57.728 50.625 82.072 12.087 15.894 26.106 31.071 40.679 37.357 7.867 3.394 17.312 4.785 26.669.632 9.007-3.998 15.157-11.928 19.421-21.08 5.331-11.443 31.179-69.216 49.681-134.1 9.244-32.419 16.813-67.154 18.912-99.054 2.069-31.457-1.005-62.497-15.432-85.64-6.214-9.967-15.312-16.377-26.661-17.607-10.46-1.134-20.746 2.376-29.792 7.284-18.071 9.804-37.506 28.688-55.785 50.24-29.373 34.637-58.703 79.743-78.317 116.789zM40.623 33.164c2.202-3.533 3.915-3.982 5.177-4.119 2.15-.233 6.273.382 12.836 3.943 13.148 7.133 29.733 22.561 47.497 43.508 33.251 39.208 66.639 92.908 84.06 130.072-14.1 27.009-35.848 67.33-57.334 95.584-12.011 15.794-22.103 25.272-29.082 28.283-1.485.641-2.414.792-2.868.817-.362.02-.477-.031-.545-.061l-.005-.003c-.168-.074-2.231-1.097-4.898-6.82-5.015-10.766-30.168-66.992-48.08-129.806-8.962-31.43-15.952-63.969-17.862-93.004-1.94-29.48 1.53-53.037 11.104-68.394zm331.89 0c-2.202-3.533-3.915-3.982-5.177-4.119-2.15-.233-6.273.382-12.836 3.943-13.148 7.133-29.734 22.561-47.497 43.508-33.251 39.208-66.639 92.908-84.06 130.072 14.099 27.009 35.848 67.33 57.334 95.584 12.011 15.794 22.103 25.272 29.082 28.283 1.485.641 2.414.792 2.868.817.362.02.477-.031.544-.061l.006-.003c.168-.074 2.231-1.097 4.898-6.82 5.015-10.766 30.168-66.992 48.079-129.806 8.963-31.43 15.953-63.969 17.863-93.004 1.939-29.48-1.53-53.037-11.104-68.394z" fill="#DCDCDC"/></svg>
